X:15
T:the Copper Cliff Highlanders March Past
C:William Livingstone Sr
B:William Livingstone Volume 1
H:
O:Kevin Fraser
Z:Kevin Fraser
Q:1/4=90
K:HP
M:2/4
L:1/8
R:March
U: R = ///
U: r = //
U: V = !accent!
V:M gstem=up stem=down name="Melody" sname="Melody" 
V:H gstem=up stem=down name="Harmony" sname="Harmony"
V:C gstem=up stem=down name="C-Harmony" sname="C-Harmony"
V:S gstem=up stem=down clef=none dyn=up name="Snare" sname="Snare"
V:B gstem=up stem=down clef=none dyn=up name="Bass" sname="Bass"
V:T gstem=up stem=down clef=none dyn=up name="Tenor" sname="Tenor"
V:BB gstem=up stem=down name="Brass Bass" sname="Bass" transpose=-1  octave=-2 clef=bass
V:BC gstem=up stem=down name="Brass Chord" sname="ABCD-D" transpose=-1
V:BD gstem=up stem=down name="Brass Chord 2" sname="ABCD-B" transpose=-1
V:P gstem=up stem=down name="Piano" sname="Piano" transpose=0 octave=-1
I:MIDI=program 110
%%MIDI gracedivider 40
% %score {M BC BD BB}
% %MIDI program 109 #bagpipes
%%MIDI vol 100
[V:M] [: e |{gAGAG}A{g}B/<d/ {gef}ed/<B/ | {Gdc}d{e}A {gBd}Be | {gAGAG}A{g}B/<d/ {gef}ed/<B/ | {gef}ea {g}ae/<f/ | 
[V:M]      |{a}g/>f/{g}e/>d/ {gef}ea | {f}g/>f/{g}e/>d/ {gef}e{AGAG}A | {Gdc}d{g}B/<d/ {gef}ed/<{e}B/ | {gef}e{g}A {GAG}A :]
[V:M] [: e | {g}fe/<d/ {gef}ea | {f}g/>f/{g}e/>d/ {gef}e{AGAG}A |{gfd}fe/<d/ {a}g/>f/{g}e/>d/ | {gf}gd {gdc}d>e | 
[V:M]      |[1 {g}fe/<d/ {gef}ea | {f}g/>f/{g}e/>d/ {gef}e{AGAG}A | {Gdc}d{g}B/<d/ {gef}ed/<{e}B/ | {gef}e{g}A {GAG}A :]
[V:M]      |[2 {gAGAG}A{g}B/<d/ {gef}e{g}A | {g}B/<{d}A{g}B/<d {gef}e{g}A | {Gdc}d{g}B/<d/ {gef}ed/<{e}B/ | {gef}e{g}A {GAG}A |]
[V:M]     e | {gAGAG}A{g}B/<d/ {gef}e{gAGAG}A | {g}B/<{d}A{g}B/<d {gef}e{gAGAG}A |{Gdc}d{g}B/<d/ {g}e/>f/g/>d/ | {g}B/<d/{e}G {gBd}Be | 
[V:M]       |[1{gAGAG}A{g}B/<d/ {gef}e{gAGAG}A | {g}B/<{d}A/{g}B/<d/ {gef}e{gAGAG}A | {Gdc}d{g}B/<d/ {gef}ed/<{e}B/ | {gef}e{g}A {GAG}A :]
[V:M]     e |   {g}f>a {fg}f>a| {f}g/>f/{g}e/d/ {gef}e{AGAG}A | {Gdc}d{g}B/<d/ {g}e/>f/g/>d/ | {g}B/<d/{e}G {gBd}Be | 
[V:M]       |[1 {g}f>a {fg}f>a| {f}g/>f/{g}e/d/ {gef}e{AGAG}A | {Gdc}d{g}B/<d/ {gef}ed/<{e}B/ | {gef}e{g}A {GAG}A :]
[V:M]      |[2 {gAGAG}A{g}B/<d/ {gef}e{g}A | {g}B/<{d}A/{g}B/<d/ {gef}e{g}A | {Gdc}d{g}B/<d/ {gef}ed/<{e}B/ | {gef}e{g}A {GAG}A |]

